X: 2277
T: LIGHT AND AIRY
R: Irish Jig.
%R: jig
B: James Kerr "Merry Melodies" v.2 p.30 #277
Z: 2016 John Chambers <jc:trillian.mit.edu>
M: 6/8
L: 1/8
K: F
|:\
c3 AcA | FAc fcA | c3 AcA | G2A B2d |\
c3 AcA | FAc fcA | BgB AfA | G2A B2d :|
|:\
fgf fcA | fgf (a2g) | fgf fcA | G2A B2d |\
faf gbg | faf ege | fed cBA | G2A B2d :|

%%sep 1 1 500
%%sep 1 1 500

